X:7
T:GB/7a/7 'Twas of a Brisk and Lively Lad Version 3 of 3 
%%VWML:GB-7a-7-0
F:http://www.vwml.org/record/GB/7a/7
P:GSK B(utterworth) & FW J(ekyll)
C:Transcribed by Simon Furey and Lewis Jones
L:1/4
M:4/4
I:linebreak $
K:A
E | A3/2 F/ G A | B3/2 c/ A !fermata!e | d c B B | A3 :| A | e3/2 d/ !fermata!c B |$
"^(a)" c A/G/ !fermata!F c/e/ | d c B/A/ B | E2 E F/G/ | A2 F G/A/ | B2 c e | d c B/A/ B | A3 |] "^(a) var." c A/G/ !fermata!F c |

